X:1
T:Title
%%score 1 2 3 4
L:1/8
Q:1/4=112
M:2/2
K:C
V:1 treble nm="MusicXML Part"
V:2 treble nm="MusicXML Part"
V:3 treble-8 nm="MusicXML Part"
V:4 bass nm="MusicXML Part"
V:1
 B4 B2 B2 | d2 B2 B2 B2 | d2 B2 B2 B2 | B4 B2 B2 | d2 B2 B2 B2 | d2 B2 B2 B2 | B4 B2 B2 | %7
w: Ik ben een|kro- kus van de|Sa- ron- vlak- te,|Ik ben een|kro- kus van de|Sa- ron- vlak- te,|Ik ben een|
 d2 B2 B2 B2 | d2 B2 B2 B2 | B4 B2 B2 | d2 B2 B2 B2 | d2 B2 B2 B2 | z2 B2 d2 B2 | B2 B2 z2 B2 | %14
w: kro- kus van de|Sa- ron- vlak- te,|Ik ben een|kro- kus van de|Sa- ron- vlak- te,|de Sa- ron-|vlak- te, de|
 d2 B2 (B4 | A4) G4 |[M:3/4] z6 | z6 | z B BB BB | A2 A4 | z B BB BB | A2 A4 | z B BB BB | A2 A4 | %24
w: Sa- ron- vlak-|* te,|||een le- lie- tje van|da- len!|een le- lie- tje van|da- len!|een le- lie- tje van|da- len!|
 z B BB BB | A6 | G6 | z6 | z6 | z6 | z6 | z6 | z6 | c6 | B6 | A6 | c6 | B6 | A6 | c6 | d6 | %41
w: een le- lie- tje van|da-|len!|||||||U|bent|mooi,|u|bent|mooi,|u|bent|
 e2 f4 | e6 |] %43
w: mooi. _|_|
V:2
 z8 | z8 | z8 | E4 E2 E2 | G2 ^F2 F2 F2 | A2 G2 G2 G2 | E4 E2 E2 | G2 ^F2 F2 F2 | A2 G2 G2 G2 | %9
w: |||Ik ben een|kro- kus van de|Sa- ron- vlak- te,|Ik ben een|kro- kus van de|Sa- ron- vlak- te,|
 E4 E2 E2 | G2 ^F2 F2 F2 | A2 G2 G2 G2 | z2 E2 E2 E2 | G2 ^F2 z2 F2 | A2 G2 (G4 | ^F4) G4 | %16
w: Ik ben een|kro- kus van de|Sa- ron- vlak- te,|de Sa- ron-|vlak- te, de|Sa- ron- vlak-|* te,|
[M:3/4] z6 | z6 | z B AA GG | ^F2 F4 | z B AA GG | ^F2 F4 | z B AA GG | ^F2 F4 | z B AA GG | %25
w: ||een le- lie- tje van|da- len!|een le- lie- tje van|da- len!|een le- lie- tje van|da- len!|een le- lie- tje van|
 ^F2 E2 ^D2 | E6 | z6 | z6 | z6 | z6 | z6 | z6 | c6 | B6 | A6 | A6 | G6 | F6 | A6 | G6 | G6- | %42
w: da- * *|len!|||||||U|bent|mooi,|u|bent|mooi,|u|bent|mooi.|
 G6 |] %43
w: _|
V:3
 z8 | z8 | z8 | z8 | z8 | z8 | G8 | ^F8 | E8 | G8 | ^F8 | E8 | G8 | A8 | B4 c4- | c4 B4 | %16
w: ||||||U|bent|mooi,|u|bent|mooi,|U|bent|mooi, _|_ _|
[M:3/4] B2 B2 B2 | d2 B4 | B2 B2 B2 | d2 B4 | B2 B2 B2 | d2 B4 | B2 B2 B2 | d2 c4 | d2 d2 d2 | %25
w: Ja, als een|le- lie,|ja als een|le- lie,|ja, als een|le- lie|on- der de|door- nen|on- der de|
 B4 A2 | B6 | E3 E EE | G3 E EE | G2 E4 | A3 A AA | c3 B BB | d2 c4 | A3 A AA | c3 B BB | d2 c4 | %36
w: door- *|nen|zo is mijn vrien-|din on- der de|meis- jes,|zo is mijn vrien-|din on- der de|meis- jes,|zo is mijn vrien-|din on- der de|meis- jes,|
 A3 A AA | c3 B BB | d2 c4 | z A A2 A2 | z c B2 B2 | z d c2 B2 | c6 |] %43
w: zo is mijn vrien-|din on- der de|meis- jes,|de meis- jes,|de meis- jes,|de meis- *|jes.|
V:4
 z8 | z8 | z8 | z8 | z8 | z8 | z8 | z8 | z8 | E,8 | D,8 | C,8 | E,8 | D,8 | D,8- | D,4 G,,4 | %16
w: |||||||||u|bent|mooi,|U|bent|mooi,|_ _|
[M:3/4] z6 | z6 | z6 | z6 | G,2 ^F,2 E,2 | B,,2 D,4 | G,2 ^F,2 E,2 | B,,2 A,,4 | A,,2 B,,2 E,2 | %25
w: ||||ja, als een|le- lie|on- der de|door- nen|on- der de|
 C,2 B,,4 | E,6 | E,3 E, E,E, | G,3 E, E,E, | G,2 E,4 | E,3 E, E,E, | G,3 E, E,E, | G,2 E,4 | %33
w: door- *|nen|zo is mijn vrien-|din on- der de|meis- jes,|zo is mijn vrien-|din on- der de|meis- jes,|
 E,3 E, E,E, | G,3 E, E,E, | G,2 E,4 | E,3 E, E,E, | G,3 E, E,E, | G,2 E,4 | z E, G,2 E,2 | %40
w: zo is mijn vrien-|din on- der de|meis- jes,|zo is mijn vrien-|din on- der de|meis- jes,|de meis- jes,|
 z E, G,2 E,2 | z E, E,2 D,2 | C,6 |] %43
w: de meis- jes,|de meis- *|jes.|

